src/images/icon.svg

<svg aria-hidden="true" style="position: absolute; width: 0; height: 0; overflow: hidden;" version="1.1" xmlns="http://www.w3.org/2000/svg" xmlns:xlink="http://www.w3.org/1999/xlink">
<defs>
<symbol id="icon-heart" viewBox="0 0 32 32">
<path stroke-linejoin="round" stroke-linecap="round" stroke-miterlimit="4" stroke-width="2" d="M9.333 4c-3.681 0-6.667 2.955-6.667 6.6 0 2.943 1.167 9.927 12.651 16.987 0.206 0.125 0.442 0.191 0.683 0.191s0.477-0.066 0.683-0.191c11.484-7.060 12.651-14.044 12.651-16.987 0-3.645-2.985-6.6-6.667-6.6s-6.667 4-6.667 4-2.985-4-6.667-4z"></path>
</symbol>
<symbol id="icon-arrow-down" viewBox="0 0 32 32">
<path d="M3.76 9.143l-3.76 3.479 16 14.806 16-14.806-3.76-3.479-12.24 11.302-12.24-11.302z"></path>
</symbol>
<symbol id="icon-arrow-up" viewBox="0 0 32 32">
<path d="M3.76 25.143l-3.76-3.479 16-14.806 16 14.806-3.76 3.479-12.24-11.302-12.24 11.302z"></path>
</symbol>
<symbol id="icon-bx_search" viewBox="0 0 32 32">
<path d="M13.333 23.6c2.367-0 4.665-0.753 6.529-2.138l5.861 5.568 1.885-1.791-5.861-5.568c1.459-1.771 2.251-3.955 2.252-6.204 0-5.587-4.785-10.133-10.667-10.133s-10.667 4.546-10.667 10.133c0 5.587 4.785 10.133 10.667 10.133zM13.333 5.867c4.412 0 8 3.409 8 7.6s-3.588 7.6-8 7.6c-4.412 0-8-3.409-8-7.6s3.588-7.6 8-7.6z"></path>
</symbol>
<symbol id="icon-calendar" viewBox="0 0 32 32">
<path d="M22.667 4h5.333c0.354 0 0.693 0.14 0.943 0.391s0.391 0.589 0.391 0.943v21.333c0 0.354-0.14 0.693-0.391 0.943s-0.589 0.391-0.943 0.391h-24c-0.354 0-0.693-0.14-0.943-0.391s-0.39-0.589-0.39-0.943v-21.333c0-0.354 0.14-0.693 0.39-0.943s0.589-0.391 0.943-0.391h5.333v-2.667h2.667v2.667h8v-2.667h2.667v2.667zM26.667 14.667h-21.333v10.667h21.333v-10.667zM20 6.667h-8v2.667h-2.667v-2.667h-4v5.333h21.333v-5.333h-4v2.667h-2.667v-2.667zM8 17.333h2.667v2.667h-2.667v-2.667zM14.667 17.333h2.667v2.667h-2.667v-2.667zM21.333 17.333h2.667v2.667h-2.667v-2.667z"></path>
</symbol>
<symbol id="icon-favorite" viewBox="0 0 32 32">
<path d="M32 16c0 8.837-7.163 16-16 16s-16-7.163-16-16c0-8.837 7.163-16 16-16s16 7.163 16 16z"></path>
<path stroke-linejoin="round" stroke-linecap="round" stroke-miterlimit="4" stroke-width="1" d="M22.63 10.457c-0.383-0.383-0.838-0.687-1.338-0.895s-1.037-0.314-1.579-0.314c-0.542 0-1.078 0.107-1.579 0.314s-0.955 0.511-1.338 0.895l-0.795 0.795-0.795-0.795c-0.774-0.774-1.823-1.208-2.918-1.208s-2.144 0.435-2.918 1.208c-0.774 0.774-1.208 1.823-1.208 2.918s0.435 2.144 1.208 2.917l6.63 6.63 6.63-6.63c0.383-0.383 0.687-0.838 0.895-1.338s0.314-1.037 0.314-1.579c0-0.542-0.107-1.078-0.314-1.579s-0.512-0.955-0.895-1.338v0z"></path>
</symbol>
<symbol id="icon-home" viewBox="0 0 32 32">
<path d="M32 16c0 8.837-7.163 16-16 16s-16-7.163-16-16c0-8.837 7.163-16 16-16s16 7.163 16 16z"></path>
<path stroke-linejoin="round" stroke-linecap="round" stroke-miterlimit="4" stroke-width="1" d="M9.25 13.75l6.75-5.25 6.75 5.25v8.25c0 0.398-0.158 0.779-0.439 1.061s-0.663 0.439-1.061 0.439h-10.5c-0.398 0-0.779-0.158-1.061-0.439s-0.439-0.663-0.439-1.061v-8.25z"></path>
<path stroke-linejoin="round" stroke-linecap="round" stroke-miterlimit="4" stroke-width="1" d="M13.75 23.5v-7.5h4.5v7.5"></path>
</symbol>
<symbol id="icon-moon" viewBox="0 0 32 32">
<path stroke-linejoin="round" stroke-linecap="round" stroke-miterlimit="4" stroke-width="2.2857" d="M28 17.053c-0.21 2.27-1.061 4.433-2.456 6.236s-3.273 3.172-5.417 3.946c-2.144 0.774-4.464 0.922-6.688 0.426s-4.262-1.615-5.874-3.227c-1.612-1.612-2.731-3.649-3.227-5.874s-0.348-4.544 0.426-6.688 2.143-4.023 3.946-5.417c1.803-1.394 3.966-2.246 6.236-2.456-1.329 1.798-1.968 4.013-1.802 6.242s1.127 4.325 2.708 5.906c1.581 1.581 3.676 2.542 5.906 2.708s4.444-0.473 6.242-1.802v0z"></path>
</symbol>
<symbol id="icon-read" viewBox="0 0 32 32">
<path d="M32 16c0 8.837-7.163 16-16 16s-16-7.163-16-16c0-8.837 7.163-16 16-16s16 7.163 16 16z"></path>
<path stroke-linejoin="round" stroke-linecap="round" stroke-miterlimit="4" stroke-width="1" d="M8.5 9.25h4.5c0.796 0 1.559 0.316 2.121 0.879s0.879 1.326 0.879 2.121v10.5c0-0.597-0.237-1.169-0.659-1.591s-0.994-0.659-1.591-0.659h-5.25v-11.25z"></path>
<path stroke-linejoin="round" stroke-linecap="round" stroke-miterlimit="4" stroke-width="1" d="M23.5 9.25h-4.5c-0.796 0-1.559 0.316-2.121 0.879s-0.879 1.326-0.879 2.121v10.5c0-0.597 0.237-1.169 0.659-1.591s0.994-0.659 1.591-0.659h5.25v-11.25z"></path>
</symbol>
<symbol id="icon-sun" viewBox="0 0 32 32">
<path stroke-linejoin="round" stroke-linecap="round" stroke-miterlimit="4" stroke-width="2.2857" d="M16 1.778v2.586M16 27.636v2.586M5.941 5.941l1.836 1.836M24.223 24.223l1.836 1.836M1.778 16h2.586M27.636 16h2.586M5.941 26.059l1.836-1.836M24.223 7.777l1.836-1.836M22.465 16c0 3.57-2.894 6.465-6.465 6.465s-6.465-2.894-6.465-6.465c0-3.57 2.894-6.465 6.465-6.465s6.465 2.894 6.465 6.465z"></path>
</symbol>
<symbol id="icon-search" viewBox="0 0 32 32">
<path d="M31.008 27.231l-7.58-6.447c-0.784-0.705-1.622-1.029-2.299-0.998 1.789-2.096 2.87-4.815 2.87-7.787 0-6.627-5.373-12-12-12s-12 5.373-12 12 5.373 12 12 12c2.972 0 5.691-1.081 7.787-2.87-0.031 0.677 0.293 1.515 0.998 2.299l6.447 7.58c1.104 1.226 2.907 1.33 4.007 0.23s0.997-2.903-0.23-4.007zM12 20c-4.418 0-8-3.582-8-8s3.582-8 8-8 8 3.582 8 8-3.582 8-8 8z"></path>
</symbol>
<symbol id="icon-github" viewBox="0 0 32 32">
<path d="M16 0.395c-8.836 0-16 7.163-16 16 0 7.069 4.585 13.067 10.942 15.182 0.8 0.148 1.094-0.347 1.094-0.77 0-0.381-0.015-1.642-0.022-2.979-4.452 0.968-5.391-1.888-5.391-1.888-0.728-1.849-1.776-2.341-1.776-2.341-1.452-0.993 0.11-0.973 0.11-0.973 1.606 0.113 2.452 1.649 2.452 1.649 1.427 2.446 3.743 1.739 4.656 1.33 0.143-1.034 0.558-1.74 1.016-2.14-3.554-0.404-7.29-1.777-7.29-7.907 0-1.747 0.625-3.174 1.649-4.295-0.166-0.403-0.714-2.030 0.155-4.234 0 0 1.344-0.43 4.401 1.64 1.276-0.355 2.645-0.532 4.005-0.539 1.359 0.006 2.729 0.184 4.008 0.539 3.054-2.070 4.395-1.64 4.395-1.64 0.871 2.204 0.323 3.831 0.157 4.234 1.026 1.12 1.647 2.548 1.647 4.295 0 6.145-3.743 7.498-7.306 7.895 0.574 0.497 1.085 1.47 1.085 2.963 0 2.141-0.019 3.864-0.019 4.391 0 0.426 0.288 0.925 1.099 0.768 6.354-2.118 10.933-8.113 10.933-15.18 0-8.837-7.164-16-16-16z"></path>
</symbol>
</defs>
</svg>

<svg aria-hidden="true" style="position:absolute;width:0;height:0;overflow:hidden" xmlns="http://www.w3.org/2000/svg">
  <defs>
    <symbol id="icon-heart" viewBox="0 0 32 32">
      <path stroke-linejoin="round" stroke-linecap="round" stroke-width="2" d="M9.333 4c-3.681 0-6.667 2.955-6.667 6.6 0 2.943 1.167 9.927 12.651 16.987a1.316 1.316 0 0 0 1.366 0c11.484-7.06 12.651-14.044 12.651-16.987 0-3.645-2.985-6.6-6.667-6.6S16 8 16 8s-2.985-4-6.667-4z"/>
    </symbol>
    <symbol id="icon-arrow-down" viewBox="0 0 32 32">
      <path d="M3.76 9.143 0 12.622l16 14.806 16-14.806-3.76-3.479L16 20.445 3.76 9.143z"/>
    </symbol>
    <symbol id="icon-arrow-up" viewBox="0 0 32 32">
      <path d="M3.76 25.143 0 21.664 16 6.858l16 14.806-3.76 3.479L16 13.841 3.76 25.143z"/>
    </symbol>
    <symbol id="icon-bx_search" viewBox="0 0 32 32">
      <path d="M13.333 23.6c2.367 0 4.665-.753 6.529-2.138l5.861 5.568 1.885-1.791-5.861-5.568a9.755 9.755 0 0 0 2.252-6.204c0-5.587-4.785-10.133-10.667-10.133S2.665 7.88 2.665 13.467c0 5.587 4.785 10.133 10.667 10.133zm0-17.733c4.412 0 8 3.409 8 7.6s-3.588 7.6-8 7.6-8-3.409-8-7.6 3.588-7.6 8-7.6z"/>
    </symbol>
    <symbol id="icon-calendar" viewBox="0 0 32 32">
      <path d="M22.667 4H28a1.335 1.335 0 0 1 1.334 1.334v21.333A1.335 1.335 0 0 1 28 28.001H4a1.33 1.33 0 0 1-1.333-1.334V5.334A1.333 1.333 0 0 1 4 4h5.333V1.333H12V4h8V1.333h2.667V4zm4 10.667H5.334v10.667h21.333V14.667zm-6.667-8h-8v2.667H9.333V6.667h-4V12h21.333V6.667h-4v2.667h-2.667V6.667zM8 17.333h2.667V20H8v-2.667zm6.667 0h2.667V20h-2.667v-2.667zm6.666 0H24V20h-2.667v-2.667z"/>
    </symbol>
    <symbol id="icon-favorite" viewBox="0 0 32 32">
      <path d="M32 16c0 8.837-7.163 16-16 16S0 24.837 0 16 7.163 0 16 0s16 7.163 16 16z"/>
      <path stroke-linejoin="round" stroke-linecap="round" d="M22.63 10.457a4.111 4.111 0 0 0-4.496-.895 4.1 4.1 0 0 0-1.338.895l-.795.795-.795-.795a4.125 4.125 0 0 0-5.836 0 4.125 4.125 0 0 0 0 5.835l6.63 6.63 6.63-6.63a4.111 4.111 0 0 0 .895-4.496 4.116 4.116 0 0 0-.895-1.338z"/>
    </symbol>
    <symbol id="icon-home" viewBox="0 0 32 32">
      <path d="M32 16c0 8.837-7.163 16-16 16S0 24.837 0 16 7.163 0 16 0s16 7.163 16 16z"/>
      <path stroke-linejoin="round" stroke-linecap="round" d="M9.25 13.75 16 8.5l6.75 5.25V22a1.503 1.503 0 0 1-1.5 1.5h-10.5a1.503 1.503 0 0 1-1.5-1.5v-8.25z"/>
      <path stroke-linejoin="round" stroke-linecap="round" d="M13.75 23.5V16h4.5v7.5"/>
    </symbol>
    <symbol id="icon-moon" viewBox="0 0 32 32">
      <path stroke-linejoin="round" stroke-linecap="round" stroke-width="2.286" d="M28 17.053a11.994 11.994 0 0 1-7.873 10.182A12.003 12.003 0 0 1 4.338 18.56 12.002 12.002 0 0 1 14.946 3.999 9.335 9.335 0 0 0 28 17.053z"/>
    </symbol>
    <symbol id="icon-read" viewBox="0 0 32 32">
      <path d="M32 16c0 8.837-7.163 16-16 16S0 24.837 0 16 7.163 0 16 0s16 7.163 16 16z"/>
      <path stroke-linejoin="round" stroke-linecap="round" d="M8.5 9.25H13a3.004 3.004 0 0 1 3 3v10.5a2.25 2.25 0 0 0-2.25-2.25H8.5V9.25zM23.5 9.25H19a3.004 3.004 0 0 0-3 3v10.5a2.25 2.25 0 0 1 2.25-2.25h5.25V9.25z"/>
    </symbol>
    <symbol id="icon-sun" viewBox="0 0 32 32">
      <path stroke-linejoin="round" stroke-linecap="round" stroke-width="2.286" d="M16 1.778v2.586m0 23.272v2.586M5.941 5.941l1.836 1.836m16.446 16.446 1.836 1.836M1.778 16h2.586m23.272 0h2.586M5.941 26.059l1.836-1.836M24.223 7.777l1.836-1.836M22.465 16a6.465 6.465 0 1 1-12.93 0 6.465 6.465 0 0 1 12.93 0z"/>
    </symbol>
    <symbol id="icon-search" viewBox="0 0 32 32">
      <path d="m31.008 27.231-7.58-6.447c-.784-.705-1.622-1.029-2.299-.998a11.954 11.954 0 0 0 2.87-7.787c0-6.627-5.373-12-12-12s-12 5.373-12 12 5.373 12 12 12c2.972 0 5.691-1.081 7.787-2.87-.031.677.293 1.515.998 2.299l6.447 7.58c1.104 1.226 2.907 1.33 4.007.23s.997-2.903-.23-4.007zM12 20a8 8 0 1 1 0-16 8 8 0 0 1 0 16z"/>
    </symbol>
    <symbol id="icon-github" viewBox="0 0 32 32">
      <path d="M16 .395c-8.836 0-16 7.163-16 16 0 7.069 4.585 13.067 10.942 15.182.8.148 1.094-.347 1.094-.77 0-.381-.015-1.642-.022-2.979-4.452.968-5.391-1.888-5.391-1.888-.728-1.849-1.776-2.341-1.776-2.341-1.452-.993.11-.973.11-.973 1.606.113 2.452 1.649 2.452 1.649 1.427 2.446 3.743 1.739 4.656 1.33.143-1.034.558-1.74 1.016-2.14-3.554-.404-7.29-1.777-7.29-7.907 0-1.747.625-3.174 1.649-4.295-.166-.403-.714-2.03.155-4.234 0 0 1.344-.43 4.401 1.64a15.353 15.353 0 0 1 4.005-.539c1.359.006 2.729.184 4.008.539 3.054-2.07 4.395-1.64 4.395-1.64.871 2.204.323 3.831.157 4.234 1.026 1.12 1.647 2.548 1.647 4.295 0 6.145-3.743 7.498-7.306 7.895.574.497 1.085 1.47 1.085 2.963 0 2.141-.019 3.864-.019 4.391 0 .426.288.925 1.099.768C27.421 29.457 32 23.462 32 16.395c0-8.837-7.164-16-16-16z"/>
    </symbol>
  </defs>

</svg>
